remix/Weather/sun-foggy-fill.svg

<svg viewBox="0 0 24 24" fill="currentColor" xmlns="http://www.w3.org/2000/svg"><path d="M6.34141 14C6.12031 13.3744 6 12.7013 6 12C6 8.68629 8.68629 6 12 6C15.3137 6 18 8.68629 18 12C18 15.3137 15.3137 18 12 18V14H6.34141ZM6 20H15V22H6V20ZM1 11H4V13H1V11ZM2 16H10V18H2V16ZM11 1H13V4H11V1ZM3.51472 4.92893L4.92893 3.51472L7.05025 5.63604L5.63604 7.05025L3.51472 4.92893ZM16.9497 18.364L18.364 16.9497L20.4853 19.0711L19.0711 20.4853L16.9497 18.364ZM19.0711 3.51472L20.4853 4.92893L18.364 7.05025L16.9497 5.63604L19.0711 3.51472ZM23 11V13H20V11H23Z"/></svg>

<svg viewBox="0 0 24 24" xmlns="http://www.w3.org/2000/svg"><path fill="none" d="M0 0h24v24H0Z"/><path d="M6.341 14H6.34c-1.11-3.13.53-6.56 3.65-7.66 3.12-1.11 6.55.53 7.65 3.65 1.1 3.12-.54 6.55-3.66 7.65 -.65.22-1.32.34-2 .34v-4H6.32Zm-.35 6h9v2h-9v-2Zm-5-9h3v2h-3v-2Zm1 5h8v2h-8v-2Zm9-15h2v3h-2V1ZM3.5 4.92L4.91 3.5l2.12 2.12 -1.42 1.41 -2.13-2.12Zm13.43 13.435l1.41-1.42 2.12 2.12 -1.42 1.41 -2.13-2.13Zm2.12-14.85l1.41 1.415 -2.13 2.12 -1.42-1.42 2.12-2.121Zm3.92 7.48v2h-3v-2h3Z"/></svg>
